dotfiles/config/awesome/icons/layouts/floating.svg

<svg width="256" height="256" viewBox="0 0 240 240" fill="none" xmlns="http://www.w3.org/2000/svg"><path fill="#DDD" d="M20 20h149v134H20z"/><path fill-rule="evenodd" clip-rule="evenodd" d="M169 120v34H84v-34h85Zm13 0v47H84v53h136V120h-38Z" fill="#DDD"/></svg>

<svg width="240" height="240" viewBox="0 0 240 240" fill="none" xmlns="http://www.w3.org/2000/svg">
<rect x="20" y="20" width="149" height="134" fill="white"/>
<path fill-rule="evenodd" clip-rule="evenodd" d="M169 120V154H84V120H169ZM182 120V167H174H169H84V220H220V120H182Z" fill="white"/>
</svg>
